X: 1
T:Miss Ester Stanhope's Reel. WM086
M:C
L:1/8
Q:200
C:*
S:Wm.Mittell,1799
R:Reel
O:England
A:Kent
N:
D:
H:
Z:C.G.P
W:Cast off 2 couplesUp again.lead down middle,up again,lead through
W:Bottom & stop.Hands 6 round
K:D
A|dABF AA/A/ AB|dABF EE/E/ Ee|dABF AA/A/ fe|dBAF DD/D/D:|!
|:g|fdaf egfe|fdfa BB/B/ Bg|f-eaf dgfe|dBAF [DA][D/A/][D/A/] [DA]:|]
